public/mascots/nj/bunny-attention-128x128.svg

<svg xmlns="http://www.w3.org/2000/svg" width="128" height="128" viewBox="0 0 128 128"><path fill="none" stroke="#00f" stroke-linecap="round" stroke-linejoin="round" stroke-width="3" d="M48 40Q32 16 40 8q16-8 24 16 4 16 0 32M80 48l8-40q8-8 16 0l-8 48"/><ellipse cx="64" cy="64" fill="none" stroke="#00f" stroke-width="3" rx="28" ry="24"/><ellipse cx="64" cy="72" fill="none" stroke="#00f" stroke-width="2.5" rx="12" ry="10"/><ellipse cx="64" cy="68" fill="#00f" rx="6" ry="5"/><ellipse cx="50" cy="56" fill="#00f" rx="6" ry="7"/><circle cx="51" cy="55" r="2.5" fill="#fff"/><ellipse cx="78" cy="56" fill="#00f" rx="6" ry="7"/><circle cx="77" cy="55" r="2.5" fill="#fff"/><path fill="none" stroke="#00f" stroke-linecap="round" stroke-width="2.5" d="M40 44q10-8 20 0M68 44q10-8 20 0M56 80q8 8 16 0"/><path fill="none" stroke="#00f" stroke-linecap="round" stroke-linejoin="round" stroke-width="3" d="M40 88q0 20 24 24 24-4 24-24"/><ellipse cx="40" cy="100" fill="none" stroke="#00f" stroke-width="2.5" rx="8" ry="10"/><ellipse cx="88" cy="100" fill="none" stroke="#00f" stroke-width="2.5" rx="8" ry="10"/></svg>

<svg xmlns="http://www.w3.org/2000/svg" viewBox="0 0 128 128" width="128" height="128">
  <path d="M48 40 Q32 16 40 8 Q56 0 64 24 Q68 40 64 56" 
        fill="none" stroke="#0000FF" stroke-width="3" stroke-linecap="round" stroke-linejoin="round"/>
  <path d="M80 48 L88 8 Q96 0 104 8 L96 56" 
        fill="none" stroke="#0000FF" stroke-width="3" stroke-linecap="round" stroke-linejoin="round"/>
  <ellipse cx="64" cy="64" rx="28" ry="24" fill="none" stroke="#0000FF" stroke-width="3"/>
  <ellipse cx="64" cy="72" rx="12" ry="10" fill="none" stroke="#0000FF" stroke-width="2.5"/>
  <ellipse cx="64" cy="68" rx="6" ry="5" fill="#0000FF"/>
  <!-- Wide alert eyes -->
  <ellipse cx="50" cy="56" rx="6" ry="7" fill="#0000FF"/>
  <circle cx="51" cy="55" r="2.5" fill="#FFF"/>
  <ellipse cx="78" cy="56" rx="6" ry="7" fill="#0000FF"/>
  <circle cx="77" cy="55" r="2.5" fill="#FFF"/>
  <!-- Raised eyebrows -->
  <path d="M40 44 Q50 36 60 44" fill="none" stroke="#0000FF" stroke-width="2.5" stroke-linecap="round"/>
  <path d="M68 44 Q78 36 88 44" fill="none" stroke="#0000FF" stroke-width="2.5" stroke-linecap="round"/>
  <path d="M56 80 Q64 88 72 80" fill="none" stroke="#0000FF" stroke-width="2.5" stroke-linecap="round"/>
  <path d="M40 88 Q40 108 64 112 Q88 108 88 88" 
        fill="none" stroke="#0000FF" stroke-width="3" stroke-linecap="round" stroke-linejoin="round"/>
  <ellipse cx="40" cy="100" rx="8" ry="10" fill="none" stroke="#0000FF" stroke-width="2.5"/>
  <ellipse cx="88" cy="100" rx="8" ry="10" fill="none" stroke="#0000FF" stroke-width="2.5"/>
</svg>
